X:1
T:As on the Night Before
T:As on the Night Before
T:Orlando Gibbons & Herbert S. Irons
T:George Wither, 1623
T:Public Domain Courtesy of the Cyber Hymnal™
T:Public Domain Courtesy of the Cyber Hymnal™
C:Orlando Gibbons & Herbert S. Irons
Z:Public Domain
Z:Courtesy of the Cyber Hymnal™
%%score ( 1 2 ) ( 3 4 )
L:1/8
M:4/4
K:G
V:1 treble 
V:2 treble 
V:3 bass 
V:4 bass 
V:1
 [B,D]4 [B,D]2 D2 | [EG]6 [FA]2 | [GB]2 [GB]2 [GA]2 [FA]2 | G4 z2 [DB]2 | [DB]2 [Ec]2 [Fd]2 D2 | %5
w: 1.~As on the|night be-|fore this hap- py|morn, A|bless- èd an- gel|
w: 2.~This fa- vor|Christ vouch-|saf- èd for our|sake; To|buy us thrones, He|
 [DG]2 [DF]2 [DE]2 [^CE]2 | D6 [DA]2 | [DA]2 [DA]2 [Ec]4- | [Ec]2 [EG]2 [DG]2 [EG]2 | %9
w: un- to shep- herds|told, Where|in a sta-|* ble He was|
w: in a man- ger|lay; Our|weak- ness took,|* that we His|
 [Fc]2 [GB]2 [FA]4 | z2 [^CA]2 [DF]2 D2 | G2 [FA]2 [GB]2 [Gd]2 | [GA]2 [FA]2 G4 | %13
w: poor- ly born,|Whom nor the|earth nor Heav’n of|Heav’ns can hold.|
w: strength might take,|And was dis-|robed, that He might|us ar- ray;|
 z2 [DG]2 [Gc]2 [=Fd]2 | [Ee]2 [Ge]2 [FA]2 [Gd]2 | [Ad]2 [A^c]2 [Fd]4 | z2 D2 G2 [FA]2 | %17
w: Thro’ Beth- l’em|rang this news at|their re- turn;|Yea, an- gels|
w: Our flesh He|wore, our sins to|wear a- way;|Our curse He|
 [GB]2 [FA]2 [Gc]2 [GB]2 | [GA]2 [FA]2 G4 | z2 [DG]2 [Ec]2 [=Fd]2 | [Ee]2 [Ge]2 [FA]2 [Gd]2 | %21
w: sang that God with|us was born;|And they made|mirth be- cause we|
w: bore, that we es-|cape it may;|And wept for|us that we might|
 [Ad]2 ^c2 [Fd]4 | z2 D2 [DG]2 A2 | [GB]2 [FA]2 [Gc]2 [GB]2 | [GA]2 [FA]2 G4 | G4 | %26
w: should not mourn,|And they made|mirth be- cause we|should not mourn.|Their|
w: sing for aye;|And wept for|us that we might|sing for aye;|With|
 [Gd]2 c2 [GB]2 [GB]2 | [GA]2 [FA]2 [GB]4 | z2 [DB]2 [DB]2 [E^c]2 | [Fd]2 [Fd]2 [Ed]2 [E^c]2 | %30
w: an- gel car- ols|sing we then;|To God on|high all glo- ry|
w: an- gels, there- fore,|sing a- gain;|To God on|high all glo- ry|
 [Fd]6 D2 | G2 [FA]2 [GB]2 [FA]2 | [Gc]2 [GB]2 [FA]2 [Fd]2 | [Gd]2 c2 [GB]2 [Gc]2 | %34
w: be, For|peace on earth be-|stow- eth He, And|show- eth fa- vor|
w: be, For|peace on earth be-|stow- eth He, And|show- eth fa- vor|
 [GA]2 [FA]2 G4 |] %35
w: un- to men.|
w: un- to men.|
V:2
 x6 D2 | x8 | x8 | G4 x4 | x6 D2 | x8 | D6 x2 | x8 | x8 | x8 | x6 D2 | (DE) x6 | x4 G4 | x8 | x8 | %15
 x8 | x2 D2 (DE) x2 | x8 | x4 G4 | x8 | x8 | x2 (AG) x4 | x2 D2 (EF) x2 | x8 | x4 G4 | G4 | %26
 x2 (GF) x4 | x8 | x8 | x8 | x6 D2 | (DE) x6 | x8 | x2 (GA) x4 | x4 G4 |] %35
V:3
 G,4 G,2 [F,A,]2 | [E,B,]6 [D,D]2 | [B,,D]2 [G,,D]2 [D,D]2 [D,A,]2 | [G,,B,]4 z2 G,2 | %4
 G,2 [E,G,]2 [D,A,]2 [D,F,]2 | [B,,G,]2 [D,A,]2 [A,,A,]2 [A,,A,]2 | [D,F,]6 [D,F,]2 | %7
 [D,F,]2 [D,=F,]2 [C,G,]4- | [C,G,]2 [C,G,]2 [B,,G,]2 [C,C]2 | [A,,C]2 [G,,D]2 [D,D]4 | %10
 z2 [A,,E,]2 [D,F,]2 ([D,F,][C,A,]) | [B,,B,]2 [A,,C]2 [G,,D]2 [B,,D]2 | [D,D]2 (DC) [G,,B,]4 | %13
 z2 [G,B,]2 [E,C]2 (A,B,) | [C,C]2 [C,G,]2 [D,D]2 [B,,D]2 | [A,,E]2 [A,,E]2 [D,D]4 | %16
 z2 [D,F,]2 [B,,B,]2 [A,,C]2 | [G,,D]2 [D,D]2 [E,C]2 [G,D]2 | [D,D]2 (DC) [G,,B,]4 | %19
 z2 [G,B,]2 [E,G,]2 (A,B,) | [C,C]2 [C,G,]2 [D,D]2 [B,,D]2 | [A,,E]2 [A,,E]2 [D,D]4 | %22
 z2 [D,F,]2 [B,,G,]2 [A,,C]2 | [G,,D]2 [D,D]2 [C,E]2 [G,D]2 | [D,D]2 (DC) [G,,B,]4 | [G,B,]4 | %26
 [G,B,]2 [A,C]2 [B,D]2 [G,D]2 | [D,D]2 [D,D]2 [G,,D]4 | z2 G,2 G,2 [E,G,]2 | %29
 [D,A,]2 [F,A,]2 [G,B,]2 A,2 | [D,A,]6 [D,F,]2 | [B,,G,]2 [A,,C]2 [G,,D]2 [D,D]2 | %32
 [C,E]2 [G,D]2 [D,D]2 [B,,D]2 | [E,E]2 ([E,E][F,D]) [G,D]2 [C,E]2 | [D,D]2 (DC) [G,,B,]4 |] %35
V:4
 G,4 G,2 x2 | x8 | x8 | x6 G,2 | G,2 x6 | x8 | x8 | x8 | x8 | x8 | x8 | x8 | x2 D,2 x4 | x6 D,2 | %14
 x8 | x8 | x8 | x8 | x2 D,2 x4 | x6 D,2 | x8 | x8 | x8 | x8 | x2 D,2 x4 | x4 | x8 | x8 | %28
 x2 G,2 G,2 x2 | x6 A,2 | x8 | x8 | x8 | x8 | x2 D,2 x4 |] %35

